img/svg/icon-font/bar-chart.svg

<svg width="22" height="22" viewBox="0 0 22 22" fill="none" xmlns="http://www.w3.org/2000/svg">
<g clip-path="url(#clip0)">
<path fill-rule="evenodd" clip-rule="evenodd" d="M7.82031 3.17969C7.82031 1.42639 9.2467 0 11 0C12.7533 0 14.1797 1.42639 14.1797 3.17969V18.8203C14.1797 20.5736 12.7533 22 11 22C9.2467 22 7.82031 20.5736 7.82031 18.8203V3.17969ZM11 20.2812C11.8056 20.2812 12.4609 19.6259 12.4609 18.8203V3.17969C12.4609 2.37411 11.8056 1.71875 11 1.71875C10.1944 1.71875 9.53906 2.37411 9.53906 3.17969V18.8203C9.53906 19.6259 10.1944 20.2812 11 20.2812ZM21.1406 15.3451C21.6153 15.3451 22 14.9604 22 14.4857V8.42712C22 6.67383 20.5736 5.24744 18.8203 5.24744C17.067 5.24744 15.6406 6.67383 15.6406 8.42712V18.8203C15.6406 20.5736 17.067 22 18.8203 22C20.5736 22 22 20.5736 22 18.8203C22 18.3457 21.6153 17.9609 21.1406 17.9609C20.666 17.9609 20.2812 18.3457 20.2812 18.8203C20.2812 19.6259 19.6259 20.2813 18.8203 20.2813C18.0147 20.2813 17.3594 19.6259 17.3594 18.8203V8.42712C17.3594 7.62155 18.0147 6.96619 18.8203 6.96619C19.6259 6.96619 20.2812 7.62155 20.2812 8.42712V14.4857C20.2812 14.9604 20.666 15.3451 21.1406 15.3451ZM3.17969 7.86853C1.42639 7.86853 0 9.29492 0 11.0482V18.8203C0 20.5736 1.42639 22 3.17969 22C4.93298 22 6.35938 20.5736 6.35938 18.8203V11.0482C6.35938 9.29492 4.93298 7.86853 3.17969 7.86853ZM4.64062 18.8203C4.64062 19.6259 3.98527 20.2813 3.17969 20.2813C2.37411 20.2813 1.71875 19.6259 1.71875 18.8203V11.0482C1.71875 10.2426 2.37411 9.58728 3.17969 9.58728C3.98527 9.58728 4.64062 10.2426 4.64062 11.0482V18.8203Z" fill="#4C51CB"/>
</g>
<defs>
<clipPath id="clip0">
<rect width="22" height="22" fill="white"/>
</clipPath>
</defs>
</svg>

<svg width="22" height="22" fill="none" xmlns="http://www.w3.org/2000/svg"><g clip-path="url(#clip0)"><path fill-rule="evenodd" clip-rule="evenodd" d="M7.82 3.18A3.183 3.183 0 0111 0a3.183 3.183 0 013.18 3.18v15.64A3.183 3.183 0 0111 22a3.183 3.183 0 01-3.18-3.18V3.18zM11 20.28c.806 0 1.46-.655 1.46-1.46V3.18a1.461 1.461 0 00-2.92-.001V18.82c0 .806.654 1.461 1.46 1.461zm10.14-4.936a.86.86 0 00.86-.86V8.428a3.183 3.183 0 00-3.18-3.18 3.183 3.183 0 00-3.18 3.18V18.82A3.183 3.183 0 0018.82 22 3.183 3.183 0 0022 18.82a.86.86 0 10-1.719 0 1.462 1.462 0 01-2.922.001V8.426a1.462 1.462 0 012.922 0v6.059c0 .474.385.86.86.86zM3.18 7.87A3.183 3.183 0 000 11.049v7.771A3.183 3.183 0 003.18 22a3.183 3.183 0 003.18-3.18v-7.772a3.183 3.183 0 00-3.18-3.18zm1.46 10.95c0 .806-.655 1.461-1.46 1.461a1.462 1.462 0 01-1.461-1.46v-7.773a1.462 1.462 0 012.922 0v7.772z" fill="#4C51CB"/></g><defs><clipPath id="clip0"><path fill="#fff" d="M0 0h22v22H0z"/></clipPath></defs></svg>
